src/images/account.svg

<svg fill="none" height="26" viewBox="0 0 26 26" width="26" xmlns="http://www.w3.org/2000/svg"><rect fill="#313131" height="26" rx="13" width="26"/><path clip-rule="evenodd" d="m14.4296 14.9678c1.3618-.5621 2.3203-1.903 2.3203-3.4678 0-2.07107-1.679-3.75-3.75-3.75-2.0711 0-3.75004 1.67893-3.75004 3.75 0 1.5647.95834 2.9056 2.32014 3.4677-1.3947.2322-2.67762.7982-3.76189 1.6129l1.38155 1.8388c1.06124-.7973 2.37884-1.2694 3.80994-1.2694s2.7487.4721 3.81 1.2694l1.3815-1.8388c-1.0842-.8146-2.367-1.3806-3.7615-1.6128z" fill="#fff" fill-rule="evenodd"/></svg>

<svg width="26" height="26" viewBox="0 0 26 26" fill="none" xmlns="http://www.w3.org/2000/svg">
<rect width="26" height="26" rx="13" fill="#313131"/>
<path fill-rule="evenodd" clip-rule="evenodd" d="M14.4296 14.9678C15.7914 14.4057 16.7499 13.0648 16.7499 11.5C16.7499 9.42893 15.0709 7.75 12.9999 7.75C10.9288 7.75 9.24986 9.42893 9.24986 11.5C9.24986 13.0647 10.2082 14.4056 11.57 14.9677C10.1753 15.1999 8.89238 15.7659 7.80811 16.5806L9.18966 18.4194C10.2509 17.6221 11.5685 17.15 12.9996 17.15C14.4307 17.15 15.7483 17.6221 16.8096 18.4194L18.1911 16.5806C17.1069 15.766 15.8241 15.2 14.4296 14.9678Z" fill="white"/>
</svg>
